tipitek/img/Logo-bw.svg

<svg width="138" height="44" viewBox="0 0 138 44" fill="none" xmlns="http://www.w3.org/2000/svg">
<path d="M9.00293 28.351L24.2473 13.1482C23.2086 12.1631 22.366 10.9262 20.8443 10.6086L22.8723 8.63452C22.9334 8.69133 23.1061 8.84755 23.271 9.01152C25.0744 10.8036 26.8636 12.6098 28.6865 14.3825C29.4656 15.1417 30.3147 15.8298 31.1457 16.5619C30.3926 17.6684 28.7657 17.822 27.7128 16.7659C27.122 16.172 26.5728 15.5381 26.0326 14.9583L12.4073 28.502L23.8864 39.9167L41.9795 21.9226L38.9412 18.9672L40.5993 17.365L45.2099 21.9819L23.9046 43.1677L9.00293 28.351Z" fill="#40637D"/>
<path d="M23.5427 30.8313C24.6229 31.8823 25.4981 33.0894 27.073 33.4393L24.9839 35.3941C22.195 32.8674 19.7111 29.8694 16.6742 27.4512C17.6246 26.2892 19.1411 26.2182 20.2318 27.3608C20.7654 27.9199 21.2796 28.4996 21.7457 29.0083L35.3892 15.4401L23.9335 4.04608L5.8547 22.0234L8.89293 24.9929L7.144 26.5423L2.60742 22.035C9.68106 14.9933 16.8287 7.8884 23.9257 0.83252L38.817 15.6428L23.5427 30.8313Z" fill="#40637D"/>
<path d="M120.892 16.0932H123.636V20.9695C123.876 20.8021 124.024 20.7051 124.167 20.5997C126.045 19.196 127.914 17.781 129.809 16.399C130.1 16.2031 130.441 16.0932 130.793 16.0819C131.908 16.0401 133.024 16.0746 134.134 16.1852L126.397 21.6594L135.239 27.9135C134.024 27.9135 132.962 27.866 131.906 27.929C131.08 27.9786 130.436 27.738 129.783 27.2411C127.89 25.7951 125.951 24.4203 124.03 23.0177C123.949 22.9578 123.862 22.9051 123.684 22.7853V27.8826H120.892V16.0932Z" fill="#40637D"/>
<path d="M107.253 27.8856V18.2529H117.677V19.9396H109.694V22.0147H114.312V23.7014H109.696V26.0491H117.798V27.8815L107.253 27.8856Z" fill="#40637D"/>
<path d="M76.692 24.1497V27.8743H74.3643V18.2395C74.5128 18.2323 74.6759 18.2178 74.8431 18.2178C77.6601 18.2178 80.4767 18.2178 83.293 18.2178C83.5001 18.215 83.7069 18.2309 83.9111 18.2654C84.9165 18.4502 85.358 18.9264 85.3975 19.9355C85.4286 20.7618 85.4317 21.5881 85.3975 22.4093C85.3528 23.468 84.7992 24.0547 83.6909 24.0918C81.8274 24.1538 79.9608 24.1342 78.0953 24.1476C77.6497 24.1518 77.2051 24.1497 76.692 24.1497ZM76.7107 22.4465H78.1649C79.5152 22.4465 80.8656 22.4558 82.2086 22.4413C82.9492 22.4341 83.1528 22.2213 83.1601 21.5303C83.1601 21.2545 83.1538 20.9798 83.1601 20.704C83.1725 20.2475 82.9523 19.9954 82.4995 19.9407C82.2947 19.9106 82.0883 19.8923 81.8814 19.8859C80.2887 19.8818 78.6988 19.8818 77.1117 19.8859C76.9781 19.893 76.845 19.9068 76.7128 19.9273L76.7107 22.4465Z" fill="#40637D"/>
<path d="M61.4573 27.9001H58.6642V18.2344H53.2109V16.1067H66.8648V18.2138H61.4573V27.9001Z" fill="#40637D"/>
<path d="M104.57 18.2488V19.952H99.8695V27.8866H97.4711V19.9964H92.8125V18.2488H104.57Z" fill="#40637D"/>
<path d="M68.8135 18.2271H71.1184V27.8783H68.8135V18.2271Z" fill="#40637D"/>
<path d="M90.1387 27.8897H87.8213V18.2446H90.1387V27.8897Z" fill="#40637D"/>
</svg>

<svg width="138" height="44" fill="none" xmlns="http://www.w3.org/2000/svg"><path d="M9.003 28.351l15.244-15.203c-1.038-.985-1.881-2.222-3.403-2.54l2.028-1.973c.061.056.234.213.399.377 1.803 1.792 3.593 3.598 5.415 5.37.78.76 1.629 1.448 2.46 2.18-.753 1.106-2.38 1.26-3.433.204-.591-.594-1.14-1.228-1.68-1.808L12.407 28.502l11.48 11.415L41.98 21.923l-3.039-2.956 1.658-1.602 4.61 4.617-21.304 21.186L9.003 28.35z" fill="#40637D"/><path d="M23.543 30.831c1.08 1.051 1.955 2.258 3.53 2.608l-2.09 1.955c-2.788-2.527-5.272-5.525-8.309-7.943.95-1.162 2.467-1.233 3.558-.09.533.559 1.048 1.139 1.514 1.647L35.389 15.44 23.933 4.046 5.855 22.023l3.038 2.97-1.749 1.55-4.537-4.508C9.681 14.993 16.83 7.888 23.926.833l14.891 14.81L23.543 30.83zM120.892 16.093h2.744v4.877c.24-.168.388-.265.531-.37 1.878-1.404 3.747-2.819 5.642-4.201.291-.196.632-.306.984-.317a24.453 24.453 0 0 1 3.341.103l-7.737 5.474 8.842 6.255c-1.215 0-2.277-.048-3.333.015-.826.05-1.47-.191-2.123-.688-1.893-1.446-3.832-2.82-5.753-4.223-.081-.06-.168-.113-.346-.233v5.098h-2.792v-11.79zM107.253 27.886v-9.633h10.424v1.687h-7.983v2.075h4.618V23.7h-4.616v2.348h8.102v1.832l-10.545.005zM76.692 24.15v3.724h-2.328V18.24c.149-.008.312-.022.48-.022h8.449c.207-.003.414.013.618.047 1.005.185 1.447.661 1.486 1.67.032.827.035 1.653 0 2.474-.044 1.059-.598 1.646-1.706 1.683-1.864.062-3.73.042-5.596.056-.445.004-.89.002-1.403.002zm.019-1.703h1.454c1.35 0 2.7.009 4.044-.006.74-.007.944-.22.951-.91 0-.276-.006-.551 0-.827.013-.457-.208-.709-.66-.763a5.399 5.399 0 0 0-.619-.055 924.8 924.8 0 0 0-4.77 0c-.133.007-.266.02-.398.041l-.002 2.52zM61.457 27.9h-2.793v-9.666h-5.453v-2.127h13.654v2.107h-5.408V27.9zM104.57 18.249v1.703h-4.7v7.935H97.47v-7.89h-4.659v-1.748h11.758zM68.814 18.227h2.304v9.651h-2.304v-9.65zM90.139 27.89H87.82v-9.645h2.318v9.645z" fill="#40637D"/></svg>
